icons/fill-new-drink-goblet-square-full.svg

<svg xmlns="http://www.w3.org/2000/svg" width="32px" height="32px" viewBox="0 0 32 32" version="1.1">
    <title>fill-new-drink-goblet-square-full</title>
    <g id="fill-new-drink-goblet-square-full" stroke-width="1" fill-rule="evenodd">
        <path d="M25,2 C25.5522847,2 26,2.44771525 26,3 L26,10 C26,15.1849719 22.0538953,19.4482817 17.0010997,19.9505155 L17,28 L20,28 C20.5522847,28 21,28.4477153 21,29 C21,29.5522847 20.5522847,30 20,30 L12,30 C11.4477153,30 11,29.5522847 11,29 C11,28.4477153 11.4477153,28 12,28 L15,28 L14.9998991,19.9506147 C9.94662476,19.4488436 6,15.1853136 6,10 L6,3 C6,2.44771525 6.44771525,2 7,2 L25,2 Z M24,4 L8,4 L8.00066845,9.59293916 C10.5782308,10.9291977 13.1557932,10.7890501 15.7333556,9.17249631 L16,9 C18.6667781,7.22214795 21.3335561,7.02467486 24.0003342,8.40758072 L24,4 Z" id="&#24418;&#29366;" />
    </g>
</svg>

<svg xmlns="http://www.w3.org/2000/svg" viewBox="0 0 32 32"><path fill="currentColor" d="M25 2a1 1 0 0 1 1 1v7c0 5.185-3.946 9.448-8.999 9.95L17 28h3a1 1 0 0 1 0 2h-8a1 1 0 0 1 0-2h3v-8.05C9.947 19.45 6 15.186 6 10V3a1 1 0 0 1 1-1zm-1 2H8v5.593c2.578 1.336 5.156 1.196 7.733-.42L16 9c2.667-1.778 5.334-1.975 8-.592z"/></svg>
